images/base/pharmacy.svg

<?xml version="1.0"?>
<svg xmlns="http://www.w3.org/2000/svg" xmlns:xlink="http://www.w3.org/1999/xlink" xmlns:svgjs="http://svgjs.com/svgjs" version="1.1" width="512" height="512" x="0" y="0" viewBox="0 0 512 512" style="enable-background:new 0 0 512 512" xml:space="preserve" class=""><g><g xmlns="http://www.w3.org/2000/svg"><path d="m496.474 482h-14.997v-322.853c18.281-10.976 30.523-30.868 30.523-53.541 0-10.441-2.653-20.782-7.674-29.906l-33.82-67.406c-2.54-5.083-7.734-8.294-13.415-8.294h-400.083c-5.546 0-10.639 3.06-13.242 7.958l-36.932 69.654c-4.366 8.639-6.671 18.283-6.671 27.995 0 22.383 11.938 42.047 29.832 53.107v323.286h-14.998c-8.282 0-14.997 6.716-14.997 15s6.715 15 14.997 15h481.477c8.283 0 14.997-6.716 14.997-15s-6.714-15-14.997-15zm-430.454-452h381.8l31.076 61.826c2.061 4.308 3.109 8.934 3.109 13.78 0 17.957-14.887 32.566-33.186 32.566s-33.187-14.609-33.187-32.566c0-8.284-6.715-15-14.997-15s-14.997 6.716-14.997 15c0 17.957-14.888 32.566-33.187 32.566s-33.187-14.609-33.187-32.566c0-8.284-6.715-15-14.997-15-8.283 0-14.997 6.716-14.997 15 0 17.957-14.887 32.566-33.186 32.566s-33.187-14.609-33.187-32.566c0-8.284-6.715-15-14.997-15-8.283 0-14.997 6.716-14.997 15 0 17.957-14.888 32.566-33.187 32.566s-33.186-14.609-33.186-32.566c0-8.284-6.715-15-14.997-15s-14.997 6.716-14.997 15c0 17.957-14.888 32.566-33.187 32.566s-33.187-14.609-33.187-32.566c0-5.356 1.277-10.452 3.796-15.146.221-.412.415-.832.594-1.255zm-6.03 138.083c1.111.058 2.229.09 3.354.09 19.288 0 36.586-8.604 48.184-22.139 11.599 13.535 28.896 22.139 48.184 22.139s36.586-8.604 48.184-22.139c11.599 13.535 28.896 22.139 48.184 22.139s36.585-8.604 48.184-22.139c11.599 13.535 28.896 22.139 48.184 22.139s36.586-8.604 48.184-22.139c11.599 13.535 28.896 22.139 48.184 22.139.893 0 1.779-.03 2.663-.067v313.894h-391.489z" fill="#2d3958" data-original="#000000" style="" class=""/><path d="m256.094 194.323c-38.455 0-69.741 31.291-69.741 69.752v121.938c0 38.462 31.286 69.753 69.741 69.753s69.741-31.291 69.741-69.753v-121.938c0-38.461-31.286-69.752-69.741-69.752zm0 30c21.916 0 39.746 17.833 39.746 39.752v45.969h-79.492v-45.969c0-21.919 17.83-39.752 39.746-39.752zm0 201.443c-21.916 0-39.746-17.833-39.746-39.753v-45.969h79.492v45.969c0 21.92-17.83 39.753-39.746 39.753z" fill="#2d3958" data-original="#000000" style="" class=""/></g></g></svg>

<?xml version="1.0" encoding="utf-8"?>
<svg viewBox="0 0 512 512" xmlns="http://www.w3.org/2000/svg">
  <path d="M 496.474 482 L 481.477 482 L 481.477 159.147 C 499.758 148.171 512 128.279 512 105.606 C 512 95.165 509.347 84.824 504.326 75.7 L 470.506 8.294 C 467.966 3.211 462.772 0 457.091 0 L 57.008 0 C 51.462 0 46.369 3.06 43.766 7.958 L 6.834 77.612 C 2.468 86.251 0.163 95.895 0.163 105.607 C 0.163 127.99 12.101 147.654 29.995 158.714 L 29.995 482 L 14.997 482 C 6.715 482 0 488.716 0 497 C 0 505.284 6.715 512 14.997 512 L 496.474 512 C 504.757 512 511.471 505.284 511.471 497 C 511.471 488.716 504.757 482 496.474 482 Z M 66.02 30 L 447.82 30 L 478.896 91.826 C 480.957 96.134 482.005 100.76 482.005 105.606 C 482.005 123.563 467.118 138.172 448.819 138.172 C 430.52 138.172 415.632 123.563 415.632 105.606 C 415.632 97.322 408.917 90.606 400.635 90.606 C 392.353 90.606 385.638 97.322 385.638 105.606 C 385.638 123.563 370.75 138.172 352.451 138.172 C 334.152 138.172 319.264 123.563 319.264 105.606 C 319.264 97.322 312.549 90.606 304.267 90.606 C 295.984 90.606 289.27 97.322 289.27 105.606 C 289.27 123.563 274.383 138.172 256.084 138.172 C 237.785 138.172 222.897 123.563 222.897 105.606 C 222.897 97.322 216.182 90.606 207.9 90.606 C 199.617 90.606 192.903 97.322 192.903 105.606 C 192.903 123.563 178.015 138.172 159.716 138.172 C 141.417 138.172 126.53 123.563 126.53 105.606 C 126.53 97.322 119.815 90.606 111.533 90.606 C 103.251 90.606 96.536 97.322 96.536 105.606 C 96.536 123.563 81.648 138.172 63.349 138.172 C 45.05 138.172 30.162 123.563 30.162 105.606 C 30.162 100.25 31.439 95.154 33.958 90.46 C 34.179 90.048 34.373 89.628 34.552 89.205 Z M 59.99 168.083 C 61.101 168.141 62.219 168.173 63.344 168.173 C 82.632 168.173 99.93 159.569 111.528 146.034 C 123.127 159.569 140.424 168.173 159.712 168.173 C 179 168.173 196.298 159.569 207.896 146.034 C 219.495 159.569 236.792 168.173 256.08 168.173 C 275.368 168.173 292.665 159.569 304.264 146.034 C 315.863 159.569 333.16 168.173 352.448 168.173 C 371.736 168.173 389.034 159.569 400.632 146.034 C 412.231 159.569 429.528 168.173 448.816 168.173 C 449.709 168.173 450.595 168.143 451.479 168.106 L 451.479 482 L 59.99 482 Z" fill="#2d3958" data-original="#000000" style="" class=""/>
  <path d="M 255.094 194.323 C 216.639 194.323 185.353 225.614 185.353 264.075 L 185.353 386.013 C 185.353 424.475 216.639 455.766 255.094 455.766 C 293.549 455.766 324.835 424.475 324.835 386.013 L 324.835 264.075 C 324.835 225.614 293.549 194.323 255.094 194.323 Z M 255.094 224.323 C 277.01 224.323 294.84 242.156 294.84 264.075 L 294.84 310.044 L 215.348 310.044 L 215.348 264.075 C 215.348 242.156 233.178 224.323 255.094 224.323 Z M 255.094 425.766 C 233.178 425.766 215.348 407.933 215.348 386.013 L 215.348 340.044 L 294.84 340.044 L 294.84 386.013 C 294.84 407.933 277.01 425.766 255.094 425.766 Z" fill="#2d3958" data-original="#000000" style="" class=""/>
</svg>
